public/images/placeofinterrests/chiraq.svg

<?xml version="1.0" encoding="UTF-8" standalone="no"?>
<svg width="116px" height="56px" viewBox="0 0 116 56" version="1.1" xmlns="http://www.w3.org/2000/svg" xmlns:xlink="http://www.w3.org/1999/xlink">
    <!-- Generator: Sketch 42 (36781) - http://www.bohemiancoding.com/sketch -->
    <title>Chicago</title>
    <desc>Created with Sketch.</desc>
    <defs></defs>
    <g id="Page-1" stroke="none" stroke-width="1" fill="none" fill-rule="evenodd">
        <g id="Chicago">
            <polygon id="Path-7" fill="#FFFFFF" points="6.90566038 3 0 52 116 56 109.971698 0.698113208"></polygon>
            <path d="M20.5514291,21.228 L20.5514291,21.2310078 C14.8975414,21.3276484 10.3394291,25.943168 10.3394291,31.62 C10.3394291,37.2851201 14.8975414,41.9003437 20.5514291,41.997 L20.5514291,42 L24.3074291,42 L24.3074291,38.244 L20.7314291,38.244 C17.0728373,38.244 14.1074291,35.2785918 14.1074291,31.62 C14.1074291,27.9614082 17.0728373,24.996 20.7314291,24.996 L24.3074291,24.996 L24.3074291,21.228 L20.5514291,21.228 Z M27.034286,21.228 L27.034286,42 L30.790286,42 L30.790286,33.504 L37.234286,33.504 L37.234286,42 L41.002286,42 L41.002286,21.228 L37.234286,21.228 L37.234286,29.736 L30.790286,29.736 L30.790286,21.228 L27.034286,21.228 Z M44.017143,21.208 L44.017143,41.968 L47.785143,41.968 L47.785143,21.208 L44.017143,21.208 Z M50.792,21.24 L57.956,21.24 L57.956,21.2460156 C61.7253125,21.3420801 64.76,24.4198086 64.76,28.224 C64.76,30.8938242 63.2574727,33.2162881 61.052,34.392 L61.2499844,34.7849922 L61.3340156,34.9470078 L64.6940156,41.64 L64.76,41.64 L64.76,42 L60.992,42 L60.992,41.862 L57.6649922,35.208 L54.548,35.208 L54.548,42 L50.792,42 L50.792,21.24 Z M54.548,24.996 L54.548,31.44 L57.776,31.44 C59.5503037,31.44 60.992,29.9983037 60.992,28.224 C60.992,26.4370244 59.5503037,24.996 57.776,24.996 L54.548,24.996 Z M74.5558492,27.1340156 L72.5368414,33.1939844 L76.5778648,33.1939844 L74.5558492,27.1340156 Z M72.7408726,21.2300156 L72.8848726,21.2780156 L76.2208726,21.2780156 L76.3648726,21.2300156 L76.382857,21.2780156 L76.430857,21.2780156 L76.430857,21.4190078 L83.1838492,41.69 L83.234857,41.69 L83.234857,41.84 L83.282857,41.987 L83.234857,42.002 L83.234857,42.05 L83.0878492,42.05 L82.9408726,42.098 L82.9258648,42.05 L79.6888414,42.05 L79.5448414,42.098 L79.5298648,42.05 L79.478857,42.05 L79.478857,41.897 L77.8288726,36.9500161 L71.2858648,36.9500161 L69.638857,41.888 L69.638857,42.05 L69.5878492,42.05 L69.5728726,42.098 L69.4288731,42.05 L66.182857,42.05 L66.1648731,42.098 L66.0208731,42.05 L65.870857,42.05 L65.870857,41.999 L65.822857,41.984 L65.870857,41.831 L65.870857,41.69 L65.918857,41.69 L72.674857,21.428 L72.674857,21.2780156 L72.7258648,21.2780156 L72.7408726,21.2300156 Z M93.305714,24.996 C89.6471222,24.996 86.681714,27.9614082 86.681714,31.62 C86.681714,35.2785918 89.6471222,38.244 93.305714,38.244 C94.3063858,38.244 95.2543858,38.0200322 96.1047218,37.6230078 L94.8987061,35.208 L94.829714,35.208 L94.829714,35.0700161 L94.769714,34.9470078 L94.829714,34.9169922 L94.829714,34.848 L94.9647218,34.848 L95.0907061,34.7849922 L95.1237296,34.848 L98.357714,34.848 L98.4837296,34.7849922 L98.5167218,34.848 L98.585714,34.848 L98.585714,34.9830078 L98.7747061,35.3580161 C99.5034425,34.2941118 99.929714,33.0073916 99.929714,31.62 C99.929714,27.9614082 96.9643058,24.996 93.305714,24.996 Z M93.305714,21.24 C99.0427374,21.24 103.697714,25.8826885 103.697714,31.62 C103.697714,34.5123838 102.512913,37.1246401 100.604722,39.006 L101.927698,41.64 L101.993714,41.64 L101.993714,41.772 L102.053714,41.898 L101.993714,41.928 L101.993714,42 L101.852722,42 L101.732722,42.06 L101.702706,42 L98.4447218,42 L98.3247218,42.06 L98.2947061,42 L98.225714,42 L98.225714,41.862 L97.7877296,40.9889985 C96.430962,41.637376 94.9098741,42 93.305714,42 C87.5686895,42 82.925714,37.3570239 82.925714,31.62 C82.925714,25.8829756 87.5686895,21.24 93.305714,21.24 Z" id="chirac" fill="#18252D"></path>
        </g>
    </g>
</svg>

<svg width="116" height="56" viewBox="0 0 116 56" xmlns="http://www.w3.org/2000/svg"><title>Chicago</title><g fill="none" fill-rule="evenodd"><path fill="#FFF" d="M6.906 3L0 52l116 4L109.972.698z"/><path d="M20.551 21.228v.003c-5.653.097-10.212 4.712-10.212 10.389 0 5.665 4.559 10.28 10.212 10.377V42h3.756v-3.756h-3.576a6.624 6.624 0 1 1 0-13.248h3.576v-3.768h-3.756zm6.483 0V42h3.756v-8.496h6.444V42h3.768V21.228h-3.768v8.508H30.79v-8.508h-3.756zm16.983-.02v20.76h3.768v-20.76h-3.768zm6.775.032h7.164v.006a6.98 6.98 0 0 1 6.804 6.978 6.988 6.988 0 0 1-3.708 6.168l.198.393.084.162 3.36 6.693h.066V42h-3.768v-.138l-3.327-6.654h-3.117V42h-3.756V21.24zm3.756 3.756v6.444h3.228a3.218 3.218 0 0 0 3.216-3.216 3.22 3.22 0 0 0-3.216-3.228h-3.228zm20.008 2.138l-2.02 6.06h4.042l-2.022-6.06zM72.74 21.23l.144.048h3.336l.144-.048.018.048h.048v.141l6.753 20.271h.05v.15l.049.147-.048.015v.048h-.147l-.147.048-.015-.048h-3.237l-.144.048-.015-.048h-.051v-.153l-1.65-4.947h-6.543l-1.647 4.938v.162h-.051l-.015.048-.144-.048h-3.246l-.018.048-.144-.048h-.15v-.051l-.048-.015.048-.153v-.141h.048l6.756-20.262v-.15h.05l.016-.048zm20.565 3.766a6.624 6.624 0 1 0 2.799 12.627l-1.206-2.415h-.07v-.138l-.06-.123.06-.03v-.069h.136l.126-.063.033.063h3.234l.126-.063.033.063h.069v.135l.189.375a6.624 6.624 0 0 0-5.469-10.362zm0-3.756c5.737 0 10.392 4.643 10.392 10.38 0 2.892-1.185 5.505-3.093 7.386l1.323 2.634h.066v.132l.06.126-.06.03V42h-.141l-.12.06-.03-.06h-3.258l-.12.06-.03-.06h-.07v-.138l-.437-.873A10.37 10.37 0 0 1 93.306 42a10.374 10.374 0 0 1-10.38-10.38c0-5.737 4.643-10.38 10.38-10.38z" fill="#18252D"/></g></svg>
